fs/circle_edit_24_filled.svg

<svg viewBox="0 0 24 24" fill="none" xmlns="http://www.w3.org/2000/svg" height="1em" width="1em">
  <path d="M20.7151 11C21.1423 11.0002 21.5703 11.0835 21.9723 11.2499C21.5887 6.0774 17.2705 2 12 2C6.47715 2 2 6.47715 2 12C2 17.1844 5.94525 21.4474 10.9973 21.9504C10.9949 21.7734 11.0153 21.5915 11.0613 21.4075L11.519 19.5768C11.681 18.9288 12.016 18.3371 12.4883 17.8648L18.3907 11.9624C19.0317 11.3214 19.8742 11.0004 20.713 11H20.7151Z" fill="#212121"/>
  <path d="M20.7152 12H20.7131C20.1285 12.0003 19.5439 12.2234 19.0979 12.6695L13.1955 18.5719C12.8513 18.916 12.6072 19.3472 12.4892 19.8194L12.0315 21.6501C11.8325 22.4462 12.5536 23.1674 13.3497 22.9683L15.1804 22.5106C15.6526 22.3926 16.0838 22.1485 16.4279 21.8043L22.3303 15.9019C23.223 15.0093 23.223 13.5621 22.3303 12.6695C21.8843 12.2234 21.2998 12.0003 20.7152 12Z" fill="#212121"/>
</svg>

<svg viewBox="0 0 24 24" fill="none" xmlns="http://www.w3.org/2000/svg" height="1em" width="1em">
  <path d="M20.715 11c.427 0 .855.084 1.257.25A10 10 0 0 0 12 2C6.477 2 2 6.477 2 12c0 5.184 3.945 9.447 8.997 9.95a2.117 2.117 0 0 1 .064-.543l.458-1.83c.162-.648.497-1.24.97-1.712l5.902-5.903A3.28 3.28 0 0 1 20.713 11h.002Z" fill="#212121"/>
  <path d="M20.715 12h-.002c-.585 0-1.17.223-1.615.67l-5.902 5.902a2.684 2.684 0 0 0-.707 1.247l-.458 1.831a1.087 1.087 0 0 0 1.319 1.318l1.83-.457a2.684 2.684 0 0 0 1.248-.707l5.902-5.902A2.285 2.285 0 0 0 20.715 12Z" fill="#212121"/>
</svg>
